X: 06097
T: WAYNE'S DANCE
C: Bob McQuillen 3 Nov 82
B: Bob's Note Book 6 #97
%R: hambo, waltz
Z: 2021 John Chambers <jc:trillian.mit.edu>
M: 3/4
L: 1/8
K: Em
GA \
| B2 GB AG | E2 D2 GA | B2 AB GE | D2 E2 GA |\
| BA Bd ed | BG A2 BA | G2 E3  D | E4 :|
[| GA \
| B2 d2 ed | B2 G2 GA | Bd ed BA | B4 Bd |\
| ed eg ag | ed B2 GA | B2 e3  d | e3  f ga |
| ba ge gb | ag    a4 | ge gb ge | d2 B2 Bd |\
| ed eg de | dB A2 GB | AG F2 D2 | E4 |]
%%begintext align
%% Wayne Cripps, who pays black
%% flute for so many of the dances up in Muskeg Music country
%% (Lyme-Hanover area of N.H.), probably likes Swedish hambos
%% about the best of all. This tune is in that style if you play
%% it a bit up-tempo, and Wayne, I sure hope you like to dance
%% to it --
%%endtext

%%sep 1 1 500

%%sep 1 1 500

